icons/tokens/0x3449FC1Cd036255BA1EB19d65fF4BA2b8903A69a/logo.svg

<svg width="32" height="32" viewBox="0 0 32 32" fill="none" xmlns="http://www.w3.org/2000/svg">
<path fill-rule="evenodd" clip-rule="evenodd" d="M16 0C24.8264 0 32 7.17525 32 16.0037C32 24.6677 25.0911 31.7396 16.4914 32H15.5086C6.90886 31.7396 0 24.6677 0 16.0037C0 10.0247 3.28419 4.80073 8.15035 2.05559C10.4692 0.747221 13.1512 0 16 0ZM16.0952 16.8611C12.4033 16.8611 9.42856 19.8365 9.42856 23.5293C9.42856 27.2221 12.4033 30.1975 16.0952 30.1975C19.7872 30.1975 22.7619 27.2221 22.7619 23.5293C22.7619 19.8365 19.7872 16.8611 16.0952 16.8611ZM7.71429 4.37054C4.08534 6.96047 1.71429 11.1975 1.71429 16.0037C1.71429 21.5785 4.89982 26.3876 9.54617 28.7433C8.43112 27.3451 7.75391 25.5863 7.72179 23.6722V23.6722H7.71429V4.37054ZM16 1.71429C13.626 1.71429 11.3963 2.29779 9.42857 3.32037V3.32037V18.4717C10.9613 16.4562 13.376 15.146 16.0952 15.146C20.7138 15.146 24.4762 18.9093 24.4762 23.5289C24.4762 25.4351 23.8283 27.1894 22.7515 28.6C27.2386 26.1927 30.2857 21.4605 30.2857 16.0033C30.2857 8.10167 23.8998 1.71429 16 1.71429Z" fill="url(#paint0_linear)"/>
<defs>
<linearGradient id="paint0_linear" x1="0.853537" y1="0.857347" x2="0.853537" y2="31.1503" gradientUnits="userSpaceOnUse">
<stop stop-color="#EDA7EC"/>
<stop offset="1" stop-color="#0216AF"/>
</linearGradient>
</defs>
</svg>

<svg fill="none" viewBox="0 0 32 32"><path fill="url(#paint0_linear)" fill-rule="evenodd" d="M16 0c8.826 0 16 7.175 16 16.004C32 24.668 25.091 31.74 16.491 32h-.982C6.909 31.74 0 24.668 0 16.004 0 10.024 3.284 4.8 8.15 2.056A15.933 15.933 0 0116 0zm.095 16.861A6.655 6.655 0 009.43 23.53a6.655 6.655 0 006.666 6.669 6.655 6.655 0 006.667-6.669 6.655 6.655 0 00-6.667-6.668zm-8.38-12.49c-3.63 2.59-6 6.826-6 11.633 0 5.574 3.185 10.384 7.831 12.74a8.333 8.333 0 01-1.824-5.072h-.008V4.371zM16 1.714c-2.374 0-4.604.584-6.571 1.606v15.152c1.532-2.016 3.947-3.326 6.666-3.326 4.619 0 8.381 3.763 8.381 8.383a8.33 8.33 0 01-1.724 5.071 14.271 14.271 0 007.534-12.597C30.286 8.102 23.9 1.714 16 1.714z" clip-rule="evenodd"/><defs><linearGradient id="paint0_linear" x1=".854" x2=".854" y1=".857" y2="31.15" gradientUnits="userSpaceOnUse"><stop stop-color="#EDA7EC"/><stop offset="1" stop-color="#0216AF"/></linearGradient></defs></svg>
